outputs/icons/editor/align_vertical_center_sharp.svg

<svg width="1200" height="1200" viewBox="0 0 1200 1200" fill="none" xmlns="http://www.w3.org/2000/svg"><g clip-path="url(#clip0_125_1489)"><path d="M1100.005 550H850.005V300H700.005V550H500.005V150H350.005V550H92.005V650H350.005V1050H500.005V650H700.005V900H850.005V650H1100.005V550Z" fill="#1D1E23"/></g><defs><clipPath id="clip0_125_1489"><path width="24" fill="white" d="M0 0H1200V1200H0V0z"/></clipPath></defs></svg>

<svg xmlns="http://www.w3.org/2000/svg" width="1200" height="1200" fill="none"><g clip-path="url(#a)"><path fill="#000" d="M1100.005 550h-250V300h-150v250h-200V150h-150v400h-258v100h258v400h150V650h200v250h150V650h250z"/></g><defs><clipPath id="a"><path fill="#fff" d="M0 0h1200v1200H0z"/></clipPath></defs></svg>
